X: 477
T:Charlie Mulvihill's Jig
R:jig
C:Charlie Mulvihill?
S:irtrad-l, 8/97, Edward A Beimborn
H:Brendan found the manuscript in a Charlie Mulvihill's attic (as part
H:of his estate, as I recall).  Brendan taught this tune at the 1993
H:Milwaukee summer school, and I transcribed it for the occasion of the
H:Great IRTRAD 1994 Milwaukee Tune Swap.  I put in some, but not all,
H:of the ornaments, which he taught us to do.  More rolls and cuts.
N:from Brendan Mulvihill
Z:Alan Ng's contribution.
M:6/8
N:Posted to the woodenflute mailing list January 2002
K:D
A|dAF AGF|dAF AGF|A,CE GFG|A,CE GFE|DFA DGB|Adc d2e|fed cBA|GFE D2::\
g|fdf a^ga|fdc d2=f|e=ce gfg|efd cde|~f3 ~g3|~a3 bag|{g}fed {d}cba|\
{a}gfe D2:|
<end>
<start>
